X:1
T:Rimsky-Korsakov Harmonic Exercises, Passing Tones
T:Rimsky-Korsakov Harmonic Exercises, Passing Tones
T:"Practical Manual of Harmony" (1885)
%%score { ( 1 2 ) | ( 3 4 ) }
L:1/8
Q:1/4=70
M:2/4
K:C
V:1 treble nm="Piano" snm="Pno."
V:2 treble 
V:3 bass 
V:4 bass 
V:1
"""^Diatonic passing tones""^Examples by Rimsky-Korsakov (\n""_C:""^passing tones""^):" (cd"" !breath!e2) |] %1
[M:3/4]"""_C:" (G4"" !breath!A2) |][M:6/8]"""_a:" (A3"" !breath!E3) |] %3
[M:4/4]"""_C:" (A6"" !breath!c2) |]"^Bad:" (d2 c2 !breath!B4) |] (e4 !breath!g4) |] %6
[M:2/4]"""^Double and triple diatonic""_C:""^passing tones""^:" (cd"" !breath!e2) |] %7
[M:4/4]"""_C:" (G4"" !breath!F4) |][M:3/4]"""""_C:" !breath!d6 |] %9
[M:4/4]"""_C:" (E2 F2"" !breath!G4) |][M:3/4]"""_a:" (c2 B2"" !breath!A2) |] %11
[M:3/2]"""_C:"[Q:1/2=70] (G4 A4"" !breath!B4) |] %12
[M:4/4]"""^tone doubling in a chord gives you more options for using""^Non-standard""^passing tones""^:"[Q:1/4=70]"_C:" (c2 B2"" !breath!A4) |] %13
[M:3/2]"""_C:" (e4 d4"" !breath!c4) |][M:3/4]"""""_C:" !breath!A6 |] %15
[M:3/2]"""""_C:"[Q:1/2=70] (B8"" !breath!c4) |][M:4/4]""[Q:1/2=70]"_C:" (c8- |"" c4"" B4 | %18
"" !breath!c8) |] %19
[M:3/2]"""^between the inversions of the seventh chord:""^Passing tones""_C:" B4 c4"" !breath!d4 |] %20
"""_a:" B4 A4"" !breath!^G4 |]"""_C:" d4 e4"" !breath!f4 |]"""_a:" d4 c4"" !breath!B4 |] %23
[M:6/4]"^Chromatic passing tones"[Q:1/4=80]"^Examples by Rimsky-Korsakov (\n""^chromatic and diatonic passing tones""^):" (A2 _B2 =B2 !breath!c6) |] %24
[M:3/4] !breath!d6 |][M:6/4] (G2 ^F2 =F2 !breath!=E6) |][M:3/4] (Bc^cd !breath!e2) |] %27
 (G_A=A_B !breath!=B2) |] (B_BA_A !breath!G2) |][M:4/4]"^Bad (false relation):" (c4 !breath!B4) |] %30
 (d2 _d2 !breath!c4) |] (d4 !breath!e4) |]"^Not so bad:" (c2 ^c2 !breath!d4) |] %33
[M:3/4][Q:1/4=120]"^Additional examples by Rimsky-Korsakov:" (e6 | e6 | f6 | f6 | d6 | %38
 !breath!c6) |]"""""_C:" (d6 |"" !breath!c6) |]"""_C:" (F2 ^F2"" G2 |"" !breath!G6) |] %43
V:2
 (E2 G2) |][M:3/4] E6 |][M:6/8] C6 |][M:4/4] (C2 D2 E2 F2) |] (G4 E4) |] (E2 F2 G4) |] %6
[M:2/4] (EF G2) |][M:4/4] (E2 D2 C4) |][M:3/4] (F2 G2 A2) |][M:4/4] (C2 D2 E4) |] %10
[M:3/4] (E2 D2 C2) |][M:3/2] (D4 E4 F4) |][M:4/4] (E2 D2 C4) |][M:3/2] (G2 A2 B4 A4) |] %14
[M:3/4] (AG FE D2) |][M:3/2] (B2 A2 G2 F2 E4) |][M:4/4] (E4 F4 | G8 | G8) |][M:3/2] G12 |] E12 |] %21
 B12 |] ^G12 |][M:6/4] (F6 G6) |][M:3/4] (A_AG^F =F2) |][M:6/4] (E2 _E2 D2 C6) |][M:3/4] G6 |] %27
 (D_E =E2 F2) |] (D_DCB, C2) |][M:4/4] (G4 G4) |] (G4 G4) |] (B4 c4) |] (G4 G4) |][M:3/4] (G6 | %34
 A6 | A6 | A6 | G2 ^F2 =F2 | E6) |] (G2 ^F2 =F2 | E6) |] (D6 | C6) |] %43
V:3
 (G,2 C2) |][M:3/4] C6 |][M:6/8] (E,^F,^G, A,3) |][M:4/4] (F,6 A,2) |] z8 |] z8 |] %6
[M:2/4] (G,2 C2) |][M:4/4] (C2 B,2 A,4) |][M:3/4] (A,2 G,2 F,2) |][M:4/4] G,8 |] %10
[M:3/4] (E,^F, ^G,2 A,2) |][M:3/2] (B,4 C4 D4) |][M:4/4] (G,4 A,4) |][M:3/2] (E4 F2 G2 A4) |] %14
[M:3/4] (FE DC B,2) |][M:3/2] (G2 F2 E2 D2 C4) |][M:4/4] (C4 D4 | E4 F4 | E8) |][M:3/2] F12 |] %20
 D12 |] G12 |] E12 |][M:6/4] (C6 E6) |][M:3/4] (D2 B,4) |][M:6/4] (C6 G,6) |][M:3/4] (DC B,2 C2) |] %27
 (B,C ^C2 D2) |] (D,_E,=E,F, E,2) |][M:4/4] (E4 D4) |] (D4 E4) |] (G4 G4) |] (E4 D4) |] %33
[M:3/4] (C6 | C6 | C6 | D2 ^C2 =C2 | B,6 | C6) |] (F,2 ^F,2 G,2 | G,6) |] (B,6 | C6) |] %43
V:4
 C,4 |][M:3/4] (C,2 B,,2 A,,2) |][M:6/8] A,,6 |][M:4/4] F,,8 |] x8 |] x8 |][M:2/4] C,4 |] %7
[M:4/4] (C,4 F,4) |][M:3/4] D,6 |][M:4/4] (E,2 D,2 C,4) |][M:3/4] A,,6 |][M:3/2] G,,12 |] %12
[M:4/4] (E,4 F,4) |][M:3/2] (C,4 D,2 E,2 F,4) |][M:3/4] F,6 |][M:3/2] (G,8 A,4) |][M:4/4] (A,8 | %17
 G,8 | C,8) |][M:3/2] D4 C4 B,4 |] ^G,4 A,4 B,4 |] F,4 E,4 D,4 |] B,4 C4 D4 |][M:6/4] (F,6 C,6) |] %24
[M:3/4] (F,2 G,2 ^G,2) |][M:6/4] C,12 |][M:3/4] (G,4 C,2) |] G,6 |] (G,,4 C,2) |] %29
[M:4/4] (C2 ^C2 D4) |] (B,4 C4) |] (D2 _D2 C4) |] (C4 B,4) |][M:3/4] (C2 B,2 _B,2 | A,2 ^G,2 =G,2 | %35
 F,2 E,2 _E,2 | D,6 | G,6 | C,6) |] (B,,6 | C,6) |] (G,2 ^F,2 =F,2 | E,6) |] %43

